X: 15
P: Sk\aaningen
O: Sweden
M: 2/4
L: 1/8
%Q: 1/4=108
K: D
 A \
| "D"d>e ff | "A7"e>f gg | "D"ff "A"ee | "D"df "A"AA \
| "D"d>e ff | "A7"e>f gg | "D"ff "A"ee | "D"d2 z ||
f/g/ \
| "D"aa fd | "G"Kbz ze/f/ | "A7"gg ec | "D"Kaz zf/g/ "I"\
| "D"aa fd | "G"bb "A7"ge | "D"dd "A7"cc | "D"d2 z |]
